build-source/logos/europe1.default.svg

<svg xmlns="http://www.w3.org/2000/svg" viewBox="0 0 139.64 48.744"><defs><clipPath id="0"><path d="m368.23 587.6h119.14v41.588h-119.14v-41.588"/></clipPath></defs><g transform="translate(-120.54-331.6)"><g clip-path="url(#0)" transform="matrix(1.17206 0 0-1.17206-311.05 1069.04)" fill="#1c63b7"><path d="m0 0c3.922-3.796 9.621-5.841 16.15-5.841 1.626 0 88.22.104 88.22.104v41.485h-110.04c0 0-.152-16.421.109-22.64.109-2.735.696-5.462 1.867-7.944.93-1.972 2.18-3.698 3.695-5.164" transform="translate(373.94 593.44)"/><path d="m0 0c1.625 0 97.28.104 97.28.104v41.484h-119.09" transform="translate(390.09 587.6)"/></g><g clip-path="url(#0)" transform="matrix(1.2968 0 0-1.2968-358.28 1146.53)" fill="#fff"><path d="m0 0c-.836.142-1.579.446-2.217.915-.647.474-1.156 1.163-1.527 2.048-.377.899-.557 2.065-.558 3.505v7.139.196l.194.032c.345.057 1.094.08 1.861.081.767 0 1.516-.024 1.862-.081l.193-.032v-7.232c0-.69.054-1.251.159-1.679.106-.428.264-.751.464-.981.204-.235.452-.397.758-.497.311-.102.691-.155 1.134-.155.534 0 .989.043 1.361.128v10.416l.194.032c.344.057 1.087.08 1.848.081.76 0 1.503-.024 1.848-.081l.194-.032v-13.633l-.157-.054c-.658-.213-4.049-.319-5.056-.325-.886 0-1.738.069-2.556.209" transform="translate(396.16 600.88)"/><path d="m0 0l-.196.031v13.499.191l.187.037c.263.053.512.092.751.118.124.014.365.018.64.019.367 0 .756-.009.932-.032.253-.035.503-.079.75-.132l.098-.02.052-.087c.068-.117.119-.257.166-.433.044-.168.084-.343.119-.529.029-.153.055-.306.078-.459.319.377.684.722 1.094 1.036.594.455 1.241.645 2.1.644.18 0 .634-.124.634-.124l.026-.131c.037-.184.063-.389.081-.619.018-.229.026-.466.026-.711 0-.298-.013-.62-.039-.967-.026-.354-.075-.689-.146-1.01l-.049-.218c0 0-.336.088-.488.088-.318 0-.589-.029-.938-.087-.318-.053-.622-.192-.922-.429-.286-.224-.535-.574-.739-1.062-.195-.468-.304-1.162-.303-2.069v-6.513l-.193-.032c-.21-.032-1.855-.041-1.855-.041-.844 0-1.651.0001-1.866.041" transform="translate(406.02 600.96)"/><path d="m0 0c-.886.006-1.459.313-1.843.951-.388.654-.597 1.639-.596 2.951 0 1.312.208 2.297.596 2.951.384.638.957.945 1.843.952.904-.007 1.484-.315 1.867-.952.388-.654.598-1.639.598-2.951 0-1.312-.21-2.297-.598-2.951-.383-.637-.963-.945-1.867-.951m6.231 6.717c-.265.883-.675 1.653-1.227 2.304-.555.652-1.253 1.167-2.086 1.538-.84.376-1.814.56-2.918.56-1.105 0-2.075-.184-2.908-.56-.824-.372-1.515-.886-2.059-1.54-.544-.65-.952-1.419-1.225-2.3-.273-.881-.409-1.82-.409-2.817 0-.997.136-1.928.409-2.792.274-.864.682-1.625 1.225-2.274.544-.654 1.236-1.163 2.061-1.528.832-.365 1.802-.545 2.906-.545 1.103 0 2.077.18 2.917.545.833.363 1.532.874 2.087 1.527.551.649.961 1.411 1.227 2.277.263.863.394 1.794.394 2.79 0 .996-.131 1.934-.394 2.815" transform="translate(420.42 603.91)"/><path d="m0 0c0-1.358-.279-2.337-.795-2.959-.519-.626-1.247-.94-2.26-.943-.51 0-.963.051-1.36.15v4.343c0 .413.04.797.122 1.156.08.353.207.655.377.911.169.252.383.447.651.593.258.141.581.216.981.216.431 0 .776-.088 1.05-.25.284-.17.517-.399.705-.696.187-.296.324-.656.405-1.087.083-.437.124-.916.124-1.434m3.932 3.152c-.273.862-.659 1.59-1.162 2.174-.501.58-1.091 1.02-1.767 1.308-.671.286-1.394.429-2.158.429-.5 0-.961-.067-1.381-.204-.412-.134-.786-.309-1.12-.526-.335-.217-.622-.468-.861-.752-.087-.105-.17-.21-.247-.315-.023.134-.05.271-.081.41-.044.19-.087.368-.13.533-.047.176-.097.317-.167.434l-.052.087-.099.02c-.301.06-.965.074-1.622.076-.662-.002-1.241-.015-1.427-.05l-.184-.04v-18.383l.196-.031c.214-.031 1.018-.04 1.859-.041.842 0 1.645.0001 1.86.041l.196.031v4.444c.136-.019.287-.036.453-.051.289-.026.583-.039.881-.039 1.153 0 2.192.17 3.112.515.917.345 1.701.837 2.343 1.479.64.641 1.129 1.42 1.465 2.331.336.91.503 1.936.502 3.071 0 1.165-.134 2.18-.409 3.049" transform="translate(436.55 607.96)"/><path d="m0 0h-4.678c.105.713.344 1.252.704 1.64.393.421.967.642 1.782.645.704-.003 1.204-.225 1.581-.674.341-.411.547-.941.611-1.611m3.523 1.523c-.265.807-.662 1.508-1.19 2.098-.526.589-1.166 1.054-1.912 1.392-.754.34-1.61.509-2.562.509-1.087 0-2.051-.189-2.883-.574-.824-.381-1.521-.903-2.082-1.562-.56-.659-.982-1.432-1.264-2.315-.282-.88-.422-1.82-.422-2.817 0-1.014.135-1.955.409-2.818.274-.868.702-1.624 1.283-2.257.582-.637 1.335-1.131 2.244-1.484.915-.356 2-.529 3.255-.529 1.701 0 3.237.26 4.603.786l.153.059-.005.164c-.018.565-.098 1.098-.24 1.597-.142.492-.309.919-.508 1.28l-.096.176-.188-.07c-.535-.2-1.098-.356-1.694-.464-.595-.109-1.176-.163-1.743-.164-1.029 0-1.833.224-2.434.651-1.218.977-1.329 2.048-1.298 2.566.008.109.018.217.043.317.018.082.083.089.098-.005.101-.656.615-1.063 1.719-1.063h6.945l.034.19c.037.201.067.459.094.781.025.323.039.65.038.981 0 .913-.132 1.772-.397 2.576" transform="translate(450.61 609.5)"/><path d="m0 0c-.862.147-1.629.461-2.287.943-.667.49-1.191 1.2-1.574 2.113-.389.929-.56 2.131-.56 3.617l.003 1.988v9.98h10.94v-3.647h-6.728v-3.543h5.341v-3.673h-5.341v-1.064c.004-.682.059-1.244.165-1.67.108-.443.272-.779.48-1.018.212-.242.469-.411.785-.515.287-.094.687-.124 1.122-.126h4.47v-3.647c0 0-4.088-.009-4.178-.009-.924 0-1.804.129-2.638.271" transform="translate(384.18 601.24)"/><path d="m0 0c-.424.277-3.453.44-4.299.057l-10.391-7.569c0 0 .044-.983.6-1.979.634-1.135 1.446-1.845 1.446-1.845l3.571 1.383-3.145-18.04h7.402l4.877 27.857-.061.133" transform="translate(471.28 624.1)"/></g></g></svg>

<?xml version="1.0" encoding="UTF-8" standalone="no"?>
<!-- Created with Inkscape (http://www.inkscape.org/) -->

<svg
   xmlns:dc="http://purl.org/dc/elements/1.1/"
   xmlns:cc="http://creativecommons.org/ns#"
   xmlns:rdf="http://www.w3.org/1999/02/22-rdf-syntax-ns#"
   xmlns:svg="http://www.w3.org/2000/svg"
   xmlns="http://www.w3.org/2000/svg"
   xmlns:sodipodi="http://sodipodi.sourceforge.net/DTD/sodipodi-0.dtd"
   xmlns:inkscape="http://www.inkscape.org/namespaces/inkscape"
   width="139.63681"
   height="48.743607"
   id="svg11693"
   version="1.1"
   inkscape:version="0.48.3.1 r9886"
   sodipodi:docname="Europe1-logo.svg">
  <defs
     id="defs11695">
    <clipPath
       clipPathUnits="userSpaceOnUse"
       id="clipPath11297">
      <path
         inkscape:connector-curvature="0"
         d="m 368.227,587.602 119.138,0 0,41.588 -119.138,0 0,-41.588 z"
         id="path11299" />
    </clipPath>
    <clipPath
       clipPathUnits="userSpaceOnUse"
       id="clipPath11643">
      <path
         inkscape:connector-curvature="0"
         d="m 368.227,587.602 119.138,0 0,41.588 -119.138,0 0,-41.588 z"
         id="path11645" />
    </clipPath>
  </defs>
  <sodipodi:namedview
     id="base"
     pagecolor="#ffffff"
     bordercolor="#666666"
     borderopacity="1.0"
     inkscape:pageopacity="0.0"
     inkscape:pageshadow="2"
     inkscape:zoom="1.4"
     inkscape:cx="49.125948"
     inkscape:cy="12.9207"
     inkscape:document-units="px"
     inkscape:current-layer="layer1"
     showgrid="false"
     fit-margin-top="0"
     fit-margin-left="0"
     fit-margin-right="0"
     fit-margin-bottom="0"
     inkscape:window-width="473"
     inkscape:window-height="447"
     inkscape:window-x="454"
     inkscape:window-y="82"
     inkscape:window-maximized="0" />
  <metadata
     id="metadata11698">
    <rdf:RDF>
      <cc:Work
         rdf:about="">
        <dc:format>image/svg+xml</dc:format>
        <dc:type
           rdf:resource="http://purl.org/dc/dcmitype/StillImage" />
        <dc:title />
      </cc:Work>
    </rdf:RDF>
  </metadata>
  <g
     inkscape:label="Ebene 1"
     inkscape:groupmode="layer"
     id="layer1"
     transform="translate(-120.53873,-331.59565)">
    <g
       transform="matrix(1.1720594,0,0,-1.1720594,-311.04519,1069.0437)"
       id="g11293">
      <g
         id="g11295"
         clip-path="url(#clipPath11297)">
        <g
           id="g11301"
           transform="translate(373.942,593.4424)">
          <path
             inkscape:connector-curvature="0"
             d="m 0,0 c 3.922,-3.796 9.621,-5.841 16.147,-5.841 1.626,0 88.225,0.104 88.225,0.104 l 0,41.485 -110.043,0 c 0,0 -0.152,-16.421 0.109,-22.64 0.109,-2.735 0.696,-5.462 1.867,-7.944 C -2.765,3.192 -1.515,1.466 0,0"
             style="fill:#1c63b7;fill-opacity:1;fill-rule:nonzero;stroke:none"
             id="path11303" />
        </g>
        <g
           id="g11305"
           transform="translate(390.0894,587.6017)">
          <path
             inkscape:connector-curvature="0"
             d="m 0,0 c 1.625,0 97.276,0.104 97.276,0.104 l 0,41.484 -119.094,0"
             style="fill:#1c63b7;fill-opacity:1;fill-rule:nonzero;stroke:none"
             id="path11307" />
        </g>
      </g>
    </g>
    <g
       transform="matrix(1.2967954,0,0,-1.2967954,-358.28162,1146.5263)"
       id="g11639">
      <g
         id="g11641"
         clip-path="url(#clipPath11643)">
        <g
           id="g11647"
           transform="translate(396.1552,600.8796)">
          <path
             inkscape:connector-curvature="0"
             d="m 0,0 c -0.836,0.142 -1.579,0.446 -2.217,0.915 -0.647,0.474 -1.156,1.163 -1.527,2.048 -0.377,0.899 -0.557,2.065 -0.558,3.505 l 0,7.139 0,0.196 0.194,0.032 c 0.345,0.057 1.094,0.08 1.861,0.081 0.767,-0.001 1.516,-0.024 1.862,-0.081 l 0.193,-0.032 0.001,-7.232 C -0.192,5.881 -0.137,5.32 -0.032,4.892 0.074,4.464 0.232,4.141 0.432,3.911 0.636,3.676 0.884,3.514 1.19,3.414 1.501,3.312 1.881,3.259 2.324,3.259 c 0.534,0 0.989,0.043 1.361,0.128 l 0,10.416 0.194,0.032 c 0.344,0.057 1.087,0.08 1.848,0.081 0.76,-0.001 1.503,-0.024 1.848,-0.081 L 7.769,13.803 7.769,0.17 7.612,0.116 C 6.954,-0.097 3.563,-0.203 2.556,-0.209 1.67,-0.209 0.818,-0.14 0,0"
             style="fill:#ffffff;fill-opacity:1;fill-rule:nonzero;stroke:none"
             id="path11649" />
        </g>
        <g
           id="g11651"
           transform="translate(406.0154,600.9559)">
          <path
             inkscape:connector-curvature="0"
             d="m 0,0 -0.196,0.031 0,13.499 0,0.191 0.187,0.037 c 0.263,0.053 0.512,0.092 0.751,0.118 0.124,0.014 0.365,0.018 0.64,0.019 0.367,-10e-4 0.756,-0.009 0.932,-0.032 0.253,-0.035 0.503,-0.079 0.75,-0.132 l 0.098,-0.02 0.052,-0.087 c 0.068,-0.117 0.119,-0.257 0.166,-0.433 0.044,-0.168 0.084,-0.343 0.119,-0.529 0.029,-0.153 0.055,-0.306 0.078,-0.459 0.319,0.377 0.684,0.722 1.094,1.036 0.594,0.455 1.241,0.645 2.1,0.644 0.18,0 0.634,-0.124 0.634,-0.124 L 7.431,13.628 C 7.468,13.444 7.494,13.239 7.512,13.009 7.53,12.78 7.538,12.543 7.538,12.298 7.538,12 7.525,11.678 7.499,11.331 7.473,10.977 7.424,10.642 7.353,10.322 L 7.304,10.104 c 0,0 -0.336,0.088 -0.488,0.088 -0.318,0 -0.589,-0.029 -0.938,-0.087 C 5.56,10.052 5.256,9.913 4.956,9.676 4.67,9.452 4.421,9.102 4.217,8.614 4.022,8.146 3.913,7.452 3.914,6.545 l 0,-6.513 L 3.721,0 C 3.511,-0.032 1.866,-0.041 1.866,-0.041 1.022,-0.04 0.215,-0.031 0,0"
             style="fill:#ffffff;fill-opacity:1;fill-rule:nonzero;stroke:none"
             id="path11653" />
        </g>
        <g
           id="g11655"
           transform="translate(420.4216,603.9077)">
          <path
             inkscape:connector-curvature="0"
             d="M 0,0 C -0.886,0.006 -1.459,0.313 -1.843,0.951 -2.231,1.605 -2.44,2.59 -2.439,3.902 -2.44,5.214 -2.231,6.199 -1.843,6.853 -1.459,7.491 -0.886,7.798 0,7.805 0.904,7.798 1.484,7.49 1.867,6.853 2.255,6.199 2.465,5.214 2.465,3.902 2.465,2.59 2.255,1.605 1.867,0.951 1.484,0.314 0.904,0.006 0,0 M 6.231,6.717 C 5.966,7.6 5.556,8.37 5.004,9.021 4.449,9.673 3.751,10.188 2.918,10.559 2.078,10.935 1.104,11.119 0,11.119 c -1.105,0 -2.075,-0.184 -2.908,-0.56 C -3.732,10.187 -4.423,9.673 -4.967,9.019 -5.511,8.369 -5.919,7.6 -6.192,6.719 -6.465,5.838 -6.601,4.899 -6.601,3.902 c 0,-0.997 0.136,-1.928 0.409,-2.792 0.274,-0.864 0.682,-1.625 1.225,-2.274 0.544,-0.654 1.236,-1.163 2.061,-1.528 0.832,-0.365 1.802,-0.545 2.906,-0.545 1.103,0 2.077,0.18 2.917,0.545 0.833,0.363 1.532,0.874 2.087,1.527 0.551,0.649 0.961,1.411 1.227,2.277 0.263,0.863 0.394,1.794 0.394,2.79 0,0.996 -0.131,1.934 -0.394,2.815"
             style="fill:#ffffff;fill-opacity:1;fill-rule:nonzero;stroke:none"
             id="path11657" />
        </g>
        <g
           id="g11659"
           transform="translate(436.549,607.9635)">
          <path
             inkscape:connector-curvature="0"
             d="m 0,0 c 0.001,-1.358 -0.279,-2.337 -0.795,-2.959 -0.519,-0.626 -1.247,-0.94 -2.26,-0.943 -0.51,0 -0.963,0.051 -1.36,0.15 l 0,4.343 c 0,0.413 0.04,0.797 0.122,1.156 0.08,0.353 0.207,0.655 0.377,0.911 0.169,0.252 0.383,0.447 0.651,0.593 0.258,0.141 0.581,0.216 0.981,0.216 0.431,0 0.776,-0.088 1.05,-0.25 C -0.95,3.047 -0.717,2.818 -0.529,2.521 -0.342,2.225 -0.205,1.865 -0.124,1.434 -0.041,0.997 0,0.518 0,0 M 3.932,3.152 C 3.659,4.014 3.273,4.742 2.77,5.326 2.269,5.906 1.679,6.346 1.003,6.634 0.332,6.92 -0.391,7.063 -1.155,7.063 -1.655,7.063 -2.116,6.996 -2.536,6.859 -2.948,6.725 -3.322,6.55 -3.656,6.333 -3.991,6.116 -4.278,5.865 -4.517,5.581 -4.604,5.476 -4.687,5.371 -4.764,5.266 -4.787,5.4 -4.814,5.537 -4.845,5.676 -4.889,5.866 -4.932,6.044 -4.975,6.209 -5.022,6.385 -5.072,6.526 -5.142,6.643 L -5.194,6.73 -5.293,6.75 C -5.594,6.81 -6.258,6.824 -6.915,6.826 -7.577,6.824 -8.156,6.811 -8.342,6.776 l -0.184,-0.04 0,-18.383 0.196,-0.031 c 0.214,-0.031 1.018,-0.04 1.859,-0.041 0.842,10e-4 1.645,0.01 1.86,0.041 l 0.196,0.031 0,4.444 c 0.136,-0.019 0.287,-0.036 0.453,-0.051 0.289,-0.026 0.583,-0.039 0.881,-0.039 1.153,0 2.192,0.17 3.112,0.515 0.917,0.345 1.701,0.837 2.343,1.479 0.64,0.641 1.129,1.42 1.465,2.331 0.336,0.91 0.503,1.936 0.502,3.071 0,1.165 -0.134,2.18 -0.409,3.049"
             style="fill:#ffffff;fill-opacity:1;fill-rule:nonzero;stroke:none"
             id="path11661" />
        </g>
        <g
           id="g11663"
           transform="translate(450.6141,609.5049)">
          <path
             inkscape:connector-curvature="0"
             d="m 0,0 -4.678,0 c 0.105,0.713 0.344,1.252 0.704,1.64 0.393,0.421 0.967,0.642 1.782,0.645 C -1.488,2.282 -0.988,2.06 -0.611,1.611 -0.27,1.2 -0.064,0.67 0,0 M 3.523,1.523 C 3.258,2.33 2.861,3.031 2.333,3.621 1.807,4.21 1.167,4.675 0.421,5.013 -0.333,5.353 -1.189,5.522 -2.141,5.522 -3.228,5.522 -4.192,5.333 -5.024,4.948 -5.848,4.567 -6.545,4.045 -7.106,3.386 -7.666,2.727 -8.088,1.954 -8.37,1.071 c -0.282,-0.88 -0.422,-1.82 -0.422,-2.817 0,-1.014 0.135,-1.955 0.409,-2.818 0.274,-0.868 0.702,-1.624 1.283,-2.257 0.582,-0.637 1.335,-1.131 2.244,-1.484 0.915,-0.356 2.001,-0.529 3.255,-0.529 1.701,0 3.237,0.26 4.603,0.786 L 3.155,-7.989 3.15,-7.825 C 3.132,-7.26 3.052,-6.727 2.91,-6.228 2.768,-5.736 2.601,-5.309 2.402,-4.948 L 2.306,-4.772 2.118,-4.842 C 1.583,-5.042 1.02,-5.198 0.424,-5.306 -0.171,-5.415 -0.752,-5.469 -1.319,-5.47 c -1.029,10e-4 -1.833,0.224 -2.434,0.651 -1.218,0.977 -1.329,2.048 -1.298,2.566 0.008,0.109 0.018,0.217 0.043,0.317 0.018,0.082 0.083,0.089 0.098,-0.005 0.101,-0.656 0.615,-1.063 1.719,-1.063 l 6.945,-10e-4 0.034,0.19 c 0.037,0.201 0.067,0.459 0.094,0.781 0.025,0.323 0.039,0.65 0.038,0.981 10e-4,0.913 -0.132,1.772 -0.397,2.576"
             style="fill:#ffffff;fill-opacity:1;fill-rule:nonzero;stroke:none"
             id="path11665" />
        </g>
        <g
           id="g11667"
           transform="translate(384.1803,601.2409)">
          <path
             inkscape:connector-curvature="0"
             d="m 0,0 c -0.862,0.147 -1.629,0.461 -2.287,0.943 -0.667,0.49 -1.191,1.2 -1.574,2.113 -0.389,0.929 -0.56,2.131 -0.56,3.617 l 0.003,1.988 0,9.98 10.94,0 0,-3.647 -6.728,0 0,-3.543 5.341,0 0,-3.673 -5.341,0 0,-1.064 C -0.202,6.032 -0.147,5.47 -0.041,5.044 0.067,4.601 0.231,4.265 0.439,4.026 0.651,3.784 0.908,3.615 1.224,3.511 1.511,3.417 1.911,3.387 2.346,3.385 l 4.47,0 0,-3.647 c 0,0 -4.088,-0.009 -4.178,-0.009 C 1.714,-0.271 0.834,-0.142 0,0"
             style="fill:#ffffff;fill-opacity:1;fill-rule:nonzero;stroke:none"
             id="path11669" />
        </g>
        <g
           id="g11671"
           transform="translate(471.2824,624.0962)">
          <path
             inkscape:connector-curvature="0"
             d="M 0,0 C -0.424,0.277 -3.453,0.44 -4.299,0.057 L -14.69,-7.512 c 0,0 0.044,-0.983 0.6,-1.979 0.634,-1.135 1.446,-1.845 1.446,-1.845 l 3.571,1.383 -3.145,-18.037 7.402,0 L 0.061,-0.133 0,0 z"
             style="fill:#ffffff;fill-opacity:1;fill-rule:nonzero;stroke:none"
             id="path11673" />
        </g>
      </g>
    </g>
  </g>
</svg>
